svgs/bromite.svg

<svg width="192" height="192" viewBox="0 0 192 192" fill="none" xmlns="http://www.w3.org/2000/svg"><g clip-path="url(#a)"><path d="M65.5 161.828c29.654 17.12 67.573 6.96 84.694-22.694 17.12-29.654 6.96-67.573-22.694-84.694-29.654-17.12-67.573-6.96-84.694 22.694-17.12 29.654-6.96 67.573 22.694 84.694Z" stroke="#000" stroke-width="12" stroke-linecap="round" stroke-linejoin="round"/><path d="M107.447 45.172a6 6 0 0 0 10.393 6l-10.393-6Zm27.713 16a6 6 0 0 0 10.393 6l-10.393-6Zm23.857-9.32a6 6 0 0 0 6-10.392l-6 10.392ZM119.983 15.46a6 6 0 0 0-6 10.392l6-10.392Zm-2.143 35.712 13-22.516-10.393-6-13 22.516 10.393 6Zm4.804-20.32 27.712 16 6-10.392-27.712-16-6 10.392Zm25.516 7.804-13 22.516 10.393 6 13-22.516-10.393-6Zm16.857 2.804-8.661-5-6 10.392 8.661 5 6-10.392Zm-36.373-21-8.661-5-6 10.392 8.661 5 6-10.392Z" fill="#000"/><path fill-rule="evenodd" clip-rule="evenodd" d="M82.608 116H99v3.089c2.899-2.034 5.889-4.071 9.072-6.075 15.999-10.076 32.234-16.154 49.245-7.648l5.366-10.734c-22.989-11.494-44.254-2.322-61.005 8.227-5.16 3.249-10.355 6.948-15.079 10.31v.001a908.48 908.48 0 0 1-3.991 2.83Z" fill="#000"/><path d="M34.003 106.342a6 6 0 0 0 3.994 11.316l-3.994-11.316Zm3.994 11.316c16.342-5.768 26.96-6.25 34.71-4.711 7.82 1.554 13.398 5.252 20.01 9.575 6.504 4.253 13.988 9.084 24.554 10.604 10.556 1.519 23.434-.34 41.014-7.578l-4.57-11.096c-16.42 6.761-27.042 7.903-34.736 6.796-7.684-1.105-13.2-4.523-19.695-8.77-6.389-4.177-13.81-9.229-24.24-11.301-10.5-2.085-23.383-1.067-41.04 5.165l3.993 11.316Z" fill="#000"/></g><defs><clipPath id="a"><path fill="#fff" d="M0 0h192v192H0z"/></clipPath></defs></svg>

<?xml version="1.0" encoding="UTF-8" standalone="no"?><svg xmlns:android="http://schemas.android.com/apk/res/android" height="192" width="192" xmlns="http://www.w3.org/2000/svg">
  <g>
    <clip-path android:pathData="M0,0h192v192h-192z"/>
    <path d="M65.5,161.828C95.154,178.948 133.073,168.788 150.194,139.134C167.314,109.48 157.154,71.561 127.5,54.44C97.846,37.32 59.927,47.48 42.806,77.134C25.686,106.788 35.846,144.707 65.5,161.828Z" fill="#000000" fill-opacity="0.0" stroke="#000000" stroke-linecap="round" stroke-linejoin="round" stroke-width="12"/>
    <path d="M107.447,45.172C105.791,48.042 106.774,51.712 109.644,53.369C112.513,55.025 116.183,54.042 117.84,51.172L107.447,45.172ZM135.16,61.172C133.503,64.042 134.487,67.712 137.356,69.369C140.226,71.025 143.896,70.042 145.553,67.172L135.16,61.172ZM159.017,51.852C161.886,53.509 165.556,52.526 167.213,49.656C168.87,46.786 167.886,43.117 165.017,41.46L159.017,51.852ZM119.983,15.46C117.114,13.803 113.444,14.786 111.787,17.656C110.13,20.525 111.114,24.195 113.983,25.852L119.983,15.46ZM117.84,51.172L130.84,28.656L120.447,22.656L107.447,45.172L117.84,51.172ZM122.644,30.852L150.356,46.852L156.356,36.46L128.644,20.46L122.644,30.852ZM148.16,38.656L135.16,61.172L145.553,67.172L158.553,44.656L148.16,38.656ZM165.017,41.46L156.356,36.46L150.356,46.852L159.017,51.852L165.017,41.46ZM128.644,20.46L119.983,15.46L113.983,25.852L122.644,30.852L128.644,20.46Z" fill="#000000"/>
    <path d="M82.608,116H99V119.089C101.899,117.055 104.889,115.018 108.072,113.014C124.071,102.938 140.306,96.86 157.317,105.366L162.683,94.632C139.694,83.138 118.429,92.31 101.678,102.859C96.519,106.108 91.323,109.807 86.599,113.169L86.599,113.17C85.225,114.148 83.89,115.098 82.608,116Z" fill="#000000" fill-rule="evenOdd"/>
    <path d="M34.003,106.342C30.878,107.445 29.239,110.872 30.342,113.997C31.445,117.122 34.872,118.761 37.997,117.658L34.003,106.342ZM37.997,117.658C54.339,111.89 64.956,111.408 72.706,112.947C80.526,114.501 86.105,118.199 92.716,122.522C99.221,126.775 106.705,131.606 117.271,133.126C127.827,134.645 140.705,132.786 158.285,125.548L153.715,114.452C137.295,121.213 126.673,122.355 118.979,121.248C111.295,120.143 105.779,116.725 99.284,112.478C92.895,108.301 85.474,103.249 75.044,101.177C64.544,99.092 51.661,100.11 34.003,106.342L37.997,117.658Z" fill="#000000"/>
  </g>
</svg>
